X:532
T:Scottish Branles
Z:Jack Campin, http://www.campin.me.uk/
F:Jack Campin's Nine-Note Tunebook
% last edit 03-02-2013
S:Thoinot Arbeau, Orchesographie
M:C|
L:1/8
Q:1/4=100
G:branle
N:last bar is just |ECD2|] in the book - I think Arbeau forgot a phrase
K:DDor
P:First Scottish Branle
DEFD EFG2|GFED FGA2|AcBA  GFED |
DEFD EFG2|GFED FGA2|GFED  ECD2||
P:Second Scottish Branle
A2AB cdcB|A2A2 GFE2|A2GF  E2D2 |
A2AB cdcB|A2A2 GFED|GFED  ECD2|]

